X: 18738
T: Ide's
R: reel
M: 4/4
K: Amajor
|:"A"E2cA "D"dAcA|"A"E2cA "E"BAFA|"A"E2cA "D"dAcd|"E7"ecBc "A"A4|
"A"E2cA "D"dAcA|"A"E2cA "E"BAFA|"A"E2cA "D"dAcd|"E7"ecBc "A"A4:|
|:"A"e2ee "D"fga2|"A"eAcA "E"BAFA|"A"e2ee "D"f2a2|"E7"ecBc "A"A4|
"A"e2ee "D"fga2|"A"eAcA "E"BAFA|"A"E2cA "D"dAc2|"E7"ecBc "A"A4:|
|:"A"eAA/A/A "D"fAA/A/A|"A"eAcA "E"BAFA|"A"eee/e/e "D"ffa2|"E7"ecBc "A"A4|
"A"eAA/A/A "D"fAA/A/A|"A"E2cA "E"BAFA|"A"E2cA "D"dAcd|"E7"ecBc "A"A4:|

